img/main-page/our-principles/03.svg

<svg width="80" height="80" viewBox="0 0 80 80" fill="none" xmlns="http://www.w3.org/2000/svg">
<path d="M42.9531 6.98829C42.5898 7.00782 42.2656 7.22267 42.1054 7.5547L38.2577 15.25C37.4374 15.457 33.0351 16.6875 30.2031 22.1445L30.1757 22.1875L29.4296 24.0625C29.3124 24.0195 29.1874 24 29.0624 24C26.3359 24 23.914 25.3672 22.4531 27.4492L14.371 38.1758L9.62884 40.0742C9.28119 40.1953 9.03119 40.4961 8.97259 40.8594C8.914 41.2227 9.06244 41.5859 9.3515 41.8086C9.64447 42.0352 10.0351 42.0781 10.371 41.9258L15.371 39.9258C15.539 39.8594 15.6874 39.7461 15.7968 39.6016L24.0742 28.625C24.082 28.6133 24.0859 28.6055 24.0937 28.5938C25.1171 27.1328 26.7617 26.1524 28.6484 26.0274L24.6874 35.9531L17.9531 43.2031L18.6601 43.8828C18.6601 43.8828 19.3945 44.5899 20.6288 45.7774C22.3867 47.4609 24.9921 47.6172 27.4765 46.9492C29.9609 46.2813 32.4492 44.7969 34.3281 42.8438C34.7773 42.3711 35.3671 41.5313 36.207 40.3281C37.0507 39.125 38.0624 37.6406 39.0351 36.1953C40.832 33.5274 42.2421 31.3828 42.496 31H64.9999C65.0038 31 65.0038 31 65.0077 31C67.2226 31.0039 68.9999 32.7813 68.9999 35C68.9999 37.2188 67.2187 39 64.9999 39H62.9999C62.4531 39.0078 62.0156 39.4531 62.0156 40C62.0156 40.5469 62.4531 40.9922 62.9999 41C65.2187 41 66.9999 42.7813 66.9999 45C66.9999 47.2188 65.2187 49 62.9999 49H61.9999C61.4531 49.0078 61.0156 49.4531 61.0156 50C61.0156 50.5469 61.4531 50.9922 61.9999 51C64.2187 51 65.9999 52.7813 65.9999 55C65.9999 56.9063 64.6757 58.4766 62.9023 58.8867C62.5195 58.9766 62.2226 59.2774 62.1484 59.6641C62.0702 60.0469 62.2226 60.4414 62.5429 60.6719C63.4257 61.3125 63.9999 62.3281 63.9999 63.5C63.9999 65.4453 62.4452 67 60.4999 67H54.9999V64C54.9999 61.25 52.7499 59 49.9999 59C48.3242 59 46.9101 59.8867 45.9999 61.1602C45.0898 59.8867 43.6757 59 41.9999 59C40.3242 59 38.9101 59.8867 37.9999 61.1602C37.0898 59.8867 35.6757 59 33.9999 59C32.3242 59 30.9101 59.8867 29.9999 61.1602C29.0898 59.8867 27.6757 59 25.9999 59C23.2499 59 20.9999 61.25 20.9999 64V67H9.99994C9.64056 66.9961 9.30462 67.1836 9.12103 67.4961C8.94134 67.8086 8.94134 68.1914 9.12103 68.5039C9.30462 68.8164 9.64056 69.0039 9.99994 69H21.4257C22.2031 70.7617 23.9609 72 25.9999 72C27.6757 72 29.0898 71.1133 29.9999 69.8399C30.9101 71.1133 32.3242 72 33.9999 72C35.6757 72 37.0898 71.1133 37.9999 69.8399C38.9101 71.1133 40.3242 72 41.9999 72C43.6757 72 45.0898 71.1133 45.9999 69.8399C46.9101 71.1133 48.3242 72 49.9999 72C52.039 72 53.7968 70.7617 54.5742 69H60.4999C63.5273 69 65.9999 66.5274 65.9999 63.5C65.9999 62.2422 65.4687 61.1758 64.7538 60.25C66.664 59.2461 67.9999 57.3008 67.9999 55C67.9999 53.0781 67.0273 51.4375 65.6093 50.3399C67.5976 49.3555 68.9999 47.3555 68.9999 45C68.9999 43.2422 68.2031 41.6953 66.9921 40.5938C69.3085 39.7656 70.9999 37.5977 70.9999 35C70.9999 32.1563 68.9999 29.7695 66.3359 29.1563L66.8085 27.7344C67.5585 25.4844 67.207 23.0703 66.0468 21.0156L67.9492 15.3164C68.0546 15.0117 68.0077 14.6758 67.8242 14.4102C67.6367 14.1445 67.3359 13.9883 67.0117 13.9844C66.5742 13.9844 66.1835 14.2656 66.0507 14.6836L63.6132 22H64.3359C65.2109 23.5586 65.4843 25.3945 64.9101 27.1055L64.2812 29H42.1367C41.7343 28.9336 41.332 29.1133 41.121 29.457C41.121 29.457 39.3163 32.1953 37.3749 35.0781C36.4062 36.5195 35.3984 37.9961 34.5702 39.1797C33.7421 40.3633 32.9999 41.3359 32.8867 41.457C31.2734 43.1328 29.0351 44.4609 26.957 45.0156C24.8828 45.5742 23.0898 45.3633 22.0156 44.332C21.2265 43.5742 21.0742 43.4258 20.7538 43.1211L26.4062 37.043L31.9843 23.0547C34.7031 17.8359 39.1952 16.9805 39.1952 16.9805L39.6757 16.8867L43.8945 8.44532C44.0585 8.12892 44.0429 7.7461 43.8476 7.44532C43.6523 7.14454 43.3124 6.96876 42.9531 6.98829ZM56.9999 17C56.4492 17 55.9999 17.4492 55.9999 18C55.9999 18.5508 56.4492 19 56.9999 19C57.5507 19 57.9999 18.5508 57.9999 18C57.9999 17.4492 57.5507 17 56.9999 17ZM60.9999 18C60.4492 18 59.9999 18.4492 59.9999 19C59.9999 19.5508 60.4492 20 60.9999 20C61.5507 20 61.9999 19.5508 61.9999 19C61.9999 18.4492 61.5507 18 60.9999 18ZM54.9999 39C54.4492 39 53.9999 39.4492 53.9999 40C53.9999 40.5508 54.4492 41 54.9999 41C55.5507 41 55.9999 40.5508 55.9999 40C55.9999 39.4492 55.5507 39 54.9999 39ZM58.9999 39C58.4492 39 57.9999 39.4492 57.9999 40C57.9999 40.5508 58.4492 41 58.9999 41C59.5507 41 59.9999 40.5508 59.9999 40C59.9999 39.4492 59.5507 39 58.9999 39ZM57.9999 49C57.4492 49 56.9999 49.4492 56.9999 50C56.9999 50.5508 57.4492 51 57.9999 51C58.5507 51 58.9999 50.5508 58.9999 50C58.9999 49.4492 58.5507 49 57.9999 49ZM58.9999 59C58.4492 59 57.9999 59.4492 57.9999 60C57.9999 60.5508 58.4492 61 58.9999 61C59.5507 61 59.9999 60.5508 59.9999 60C59.9999 59.4492 59.5507 59 58.9999 59ZM25.9999 61C27.6679 61 28.9999 62.332 28.9999 64C29.0077 64.5469 29.4531 64.9844 29.9999 64.9844C30.5468 64.9844 30.9921 64.5469 30.9999 64C30.9999 62.332 32.332 61 33.9999 61C35.6679 61 36.9999 62.332 36.9999 64C36.9999 64.0352 37.0038 64.0664 37.0038 64.0977C37.0117 64.1641 37.0273 64.2305 37.0468 64.2969C37.0702 64.3594 37.0976 64.4219 37.1288 64.4805C37.1601 64.5352 37.1992 64.5899 37.246 64.6406C37.3554 64.7695 37.4921 64.8633 37.6523 64.9219C37.7148 64.9453 37.7773 64.9649 37.8437 64.9727C37.8749 64.9805 37.9101 64.9844 37.9413 64.9844C38.0117 64.9883 38.0781 64.9844 38.1406 64.9766C38.1757 64.9727 38.207 64.9649 38.2382 64.957C38.3046 64.9414 38.3671 64.918 38.4296 64.8906C38.4609 64.875 38.4882 64.8594 38.5156 64.8438C38.6015 64.7891 38.6796 64.7266 38.746 64.6524C38.789 64.6016 38.8281 64.5469 38.8632 64.4883C38.9296 64.375 38.9765 64.2461 38.9921 64.1133C38.996 64.0742 38.9999 64.0391 38.9999 64C38.9999 62.332 40.332 61 41.9999 61C43.6679 61 44.9999 62.332 44.9999 64C44.9999 64.0352 45.0038 64.0664 45.0038 64.0977C45.0117 64.1328 45.0156 64.168 45.0234 64.1992C45.082 64.4649 45.2421 64.6914 45.4687 64.8359C45.4999 64.8516 45.5273 64.8672 45.5585 64.8828C45.5898 64.8984 45.6171 64.9102 45.6523 64.9219C45.7148 64.9453 45.7773 64.9649 45.8437 64.9727C45.8749 64.9805 45.9101 64.9844 45.9413 64.9844C45.9765 64.9844 46.0117 64.9844 46.0429 64.9844C46.1093 64.9805 46.1757 64.9727 46.2382 64.957C46.3046 64.9414 46.3671 64.918 46.4296 64.8906C46.4882 64.8594 46.5468 64.8242 46.5976 64.7852C46.6249 64.7656 46.6523 64.7461 46.6757 64.7227C46.7773 64.6328 46.8554 64.5234 46.9101 64.4024C46.9257 64.3711 46.9374 64.3399 46.9492 64.3086C46.957 64.2734 46.9687 64.2422 46.9726 64.2109C46.9804 64.1797 46.9882 64.1445 46.9921 64.1133C46.996 64.0742 46.9999 64.0391 46.9999 64C46.9999 62.332 48.332 61 49.9999 61C51.6679 61 52.9999 62.332 52.9999 64V67C52.9999 68.668 51.6679 70 49.9999 70C48.332 70 46.9999 68.668 46.9999 67C46.9999 66.9649 46.996 66.9336 46.996 66.9024C46.9882 66.8359 46.9726 66.7695 46.9531 66.7031C46.9296 66.6406 46.9023 66.5781 46.871 66.5195C46.8398 66.4649 46.8007 66.4102 46.7538 66.3594C46.6913 66.2852 46.6132 66.2188 46.5312 66.1641C46.4999 66.1484 46.4726 66.1328 46.4413 66.1172C46.4101 66.1016 46.3827 66.0899 46.3476 66.0781C46.3163 66.0664 46.2851 66.0547 46.2538 66.0469C46.1562 66.0234 46.0585 66.0117 45.957 66.0156C45.8906 66.0195 45.8242 66.0274 45.7617 66.043C45.7265 66.0508 45.6952 66.0625 45.664 66.0742C45.6327 66.082 45.6015 66.0977 45.5702 66.1094C45.4804 66.1524 45.3945 66.2109 45.3242 66.2774C45.2499 66.3477 45.1874 66.4258 45.1367 66.5117C45.121 66.5391 45.1054 66.5703 45.0898 66.5977C45.0742 66.6289 45.0624 66.6602 45.0507 66.6914C45.0429 66.7266 45.0312 66.7578 45.0273 66.7891C45.0117 66.8555 44.9999 66.918 44.9999 66.9844C44.9999 66.9922 44.9999 66.9961 44.9999 67C44.9999 68.668 43.6679 70 41.9999 70C40.332 70 38.9999 68.668 38.9999 67C38.9999 66.9649 38.996 66.9336 38.996 66.9024C38.9882 66.8672 38.9843 66.832 38.9765 66.8008C38.9609 66.7344 38.9413 66.6719 38.9179 66.6094C38.8359 66.4258 38.6992 66.2695 38.5312 66.1641C38.2695 66.0039 37.9531 65.9688 37.664 66.0742C37.6015 66.0938 37.539 66.125 37.4843 66.1563C37.4257 66.1914 37.371 66.2305 37.3242 66.2774C37.2734 66.3242 37.2304 66.375 37.1874 66.4258C37.1718 66.4531 37.1523 66.4844 37.1367 66.5117C37.121 66.5391 37.1054 66.5703 37.0898 66.5977C37.0624 66.6602 37.039 66.7227 37.0273 66.7891C37.0117 66.8555 36.9999 66.918 36.9999 66.9844C36.9999 66.9922 36.9999 66.9961 36.9999 67C36.9999 68.668 35.6679 70 33.9999 70C32.332 70 30.9999 68.668 30.9999 67C30.9921 66.4531 30.5468 66.0156 29.9999 66.0156C29.4531 66.0156 29.0077 66.4531 28.9999 67C28.9999 68.668 27.6679 70 25.9999 70C24.332 70 22.9999 68.668 22.9999 67V64C22.9999 62.332 24.332 61 25.9999 61Z" fill="#E4B564"/>
</svg>

<svg width="80" height="80" fill="none" xmlns="http://www.w3.org/2000/svg"><path d="M42.953 6.988a1 1 0 00-.848.567l-3.847 7.695c-.82.207-5.223 1.438-8.055 6.895l-.027.043-.746 1.875a1.067 1.067 0 00-.368-.063 8.074 8.074 0 00-6.609 3.45l-8.082 10.726-4.742 1.898a.996.996 0 00-.277 1.735.992.992 0 001.019.117l5-2a.996.996 0 00.426-.324l8.277-10.977.02-.031a6.035 6.035 0 014.554-2.567l-3.96 9.926-6.735 7.25.707.68 1.969 1.894c1.758 1.684 4.363 1.84 6.848 1.172 2.484-.668 4.972-2.152 6.851-4.105.45-.473 1.04-1.313 1.879-2.516a275.255 275.255 0 002.828-4.133c1.797-2.668 3.207-4.812 3.461-5.195h22.512A3.986 3.986 0 0169 35c0 2.219-1.781 4-4 4h-2a.999.999 0 00-.984 1c0 .547.437.992.984 1 2.219 0 4 1.781 4 4 0 2.219-1.781 4-4 4h-1a.999.999 0 00-.984 1c0 .547.437.992.984 1 2.219 0 4 1.781 4 4a3.985 3.985 0 01-3.098 3.887.993.993 0 00-.754.777.995.995 0 00.395 1.008A3.473 3.473 0 0164 63.5c0 1.945-1.555 3.5-3.5 3.5H55v-3c0-2.75-2.25-5-5-5-1.676 0-3.09.887-4 2.16-.91-1.273-2.324-2.16-4-2.16-1.676 0-3.09.887-4 2.16-.91-1.273-2.324-2.16-4-2.16-1.676 0-3.09.887-4 2.16-.91-1.273-2.324-2.16-4-2.16-2.75 0-5 2.25-5 5v3H10a1.006 1.006 0 00-.879.496 1.01 1.01 0 000 1.008c.184.312.52.5.879.496h11.426c.777 1.762 2.535 3 4.574 3 1.676 0 3.09-.887 4-2.16.91 1.273 2.324 2.16 4 2.16 1.676 0 3.09-.887 4-2.16.91 1.273 2.324 2.16 4 2.16 1.676 0 3.09-.887 4-2.16.91 1.273 2.324 2.16 4 2.16 2.039 0 3.797-1.238 4.574-3H60.5c3.027 0 5.5-2.473 5.5-5.5 0-1.258-.531-2.324-1.246-3.25C66.664 59.246 68 57.3 68 55c0-1.922-.973-3.563-2.39-4.66C67.597 49.355 69 47.355 69 45c0-1.758-.797-3.305-2.008-4.406C69.308 39.766 71 37.598 71 35c0-2.844-2-5.23-4.664-5.844l.472-1.422c.75-2.25.399-4.664-.761-6.718l1.902-5.7c.106-.304.059-.64-.125-.906a1.005 1.005 0 00-.812-.426c-.438 0-.829.282-.961.7L63.613 22h.723c.875 1.559 1.148 3.395.574 5.105L64.281 29H42.137a.999.999 0 00-1.016.457s-1.805 2.738-3.746 5.621a278.069 278.069 0 01-2.805 4.102c-.828 1.183-1.57 2.156-1.683 2.277-1.614 1.676-3.852 3.004-5.93 3.559-2.074.558-3.867.347-4.941-.684-.79-.758-.942-.906-1.262-1.21l5.652-6.079 5.578-13.988c2.72-5.22 7.211-6.075 7.211-6.075l.48-.093 4.22-8.442a.996.996 0 00-.047-1 1.002 1.002 0 00-.895-.457zM57 17c-.55 0-1 .45-1 1s.45 1 1 1 1-.45 1-1-.45-1-1-1zm4 1c-.55 0-1 .45-1 1s.45 1 1 1 1-.45 1-1-.45-1-1-1zm-6 21c-.55 0-1 .45-1 1s.45 1 1 1 1-.45 1-1-.45-1-1-1zm4 0c-.55 0-1 .45-1 1s.45 1 1 1 1-.45 1-1-.45-1-1-1zm-1 10c-.55 0-1 .45-1 1s.45 1 1 1 1-.45 1-1-.45-1-1-1zm1 10c-.55 0-1 .45-1 1s.45 1 1 1 1-.45 1-1-.45-1-1-1zm-33 2c1.668 0 3 1.332 3 3a.999.999 0 001 .984.999.999 0 001-.984c0-1.668 1.332-3 3-3s3 1.332 3 3c0 .035.004.066.004.098.008.066.023.133.043.199a.894.894 0 00.199.344c.11.128.246.222.406.28a.816.816 0 00.192.052 1.106 1.106 0 00.395-.016c.066-.016.128-.039.19-.066.032-.016.06-.032.087-.047.086-.055.164-.117.23-.192.043-.05.082-.105.117-.164a.974.974 0 00.13-.375c.003-.039.007-.074.007-.113 0-1.668 1.332-3 3-3s3 1.332 3 3c0 .035.004.066.004.098.008.035.012.07.02.101.058.266.218.492.445.637l.09.047a.676.676 0 00.093.039.816.816 0 00.192.05.417.417 0 00.097.012h.102a1.062 1.062 0 00.387-.093c.058-.032.117-.067.168-.106.027-.02.054-.039.078-.062.101-.09.18-.2.234-.32.016-.032.027-.063.04-.094.007-.036.019-.067.023-.098a.864.864 0 00.02-.098c.003-.039.007-.074.007-.113 0-1.668 1.332-3 3-3s3 1.332 3 3v3c0 1.668-1.332 3-3 3s-3-1.332-3-3c0-.035-.004-.066-.004-.098a1.211 1.211 0 00-.043-.199 1.55 1.55 0 00-.082-.184.882.882 0 00-.117-.16 1.067 1.067 0 00-.223-.195l-.09-.047a.687.687 0 00-.093-.039.937.937 0 00-.094-.031 1.079 1.079 0 00-.297-.031 1.071 1.071 0 00-.195.027.712.712 0 00-.098.031c-.031.008-.063.024-.094.035a.979.979 0 00-.246.168 1.07 1.07 0 00-.187.235c-.016.027-.032.058-.047.086a.955.955 0 00-.04.093c-.007.036-.019.067-.023.098a.842.842 0 00-.027.195V67c0 1.668-1.332 3-3 3s-3-1.332-3-3c0-.035-.004-.066-.004-.098-.008-.035-.012-.07-.02-.101a1.555 1.555 0 00-.058-.192.999.999 0 00-1.254-.535.94.94 0 00-.34.203c-.05.047-.094.098-.137.149-.015.027-.035.058-.05.086-.016.027-.032.058-.047.086a.84.84 0 00-.063.191.842.842 0 00-.027.195V67c0 1.668-1.332 3-3 3s-3-1.332-3-3a.999.999 0 00-1-.984.999.999 0 00-1 .984c0 1.668-1.332 3-3 3s-3-1.332-3-3v-3c0-1.668 1.332-3 3-3z" fill="#E4B564"/></svg>
